X: 183
T:The Almond House
R:jig
Z:Madison
M:6/8
Q:80
K:D
A|dAA AFA|dcB AFA|Bcd ede|fdB ABc|dAA AFA|dcB AFA|BGB AFE|FDD D2:|
e|f2 d dfg|afe dBA|Bdd Ade|fdf efg|afa bgb|afd edB|Add cBc|dAF D2:|
